X: 27077
T: Miss Johnstone's
R: slip jig
M: 9/8
K: Gmajor
B2d c2A G3|D2G B2A G2g|f2d c2A G2D|F2G A2B c2A:|
|:B2d ^c2e d3|B2d g2a bag|B2d ^c2e d2f|a3 f2a gfe:|

